X:13
T:Roderhithe Assembly. Ca1758.037
M:6/8
L:1/8
Q:3/8=100
B:Cahusac,T. 24 Country Dances for the Year 1758
Z:vmp.Mike Hicken 2015 www.village-music-project.org.uk
N:* There is no repeat sign shown here in the original.
K:Bb
F|BFB dcB|(fg)a b2f|(ge)d (cd)e|(gf)A B2F|
BFB dcB|(fga) b2g|(ag)f (ab)g|f3f2 :|
|:f|dcB _agf|b2d e2g|f(ed) (c/d/e)B|(A/B/c)F E>DF|
GETE ecTc|dBTB g2e|(df)b {d}Tc3|B3B2 "*":|
W:
W: The 1st. Man foot it twice to the 2d. Wo. He cast off
W: and the Wo. cast up set and cast into your own Places
W: again .|  1st. Wo. and 2d. Man do the same :|  the
W: two Men lead between the two We. and foot it .|
W: the two We. do the same :|  the 1st. Cu. heys with the
W: 2d. Wo. .|  then with the 2d. Man :|  gallop down
W: and  up cast off .|  and Right and Left :|

